src/1-subject/sit-side.svg

<svg width="1300" height="1000" viewBox="0 0 1300 1000" fill="none" xmlns="http://www.w3.org/2000/svg"><path d="M608.376 881.634 592 872.999l10.493-168.31c1.171-18.786-10.914-35.848-29.025-40.976L521.5 649a28.135 28.135 0 0 0-19.514-26.781L478 614.5c0-51.667-5.843-157.167-30-162.5-38.5-8.5-59 15.999-71 50.499C369.825 523.128 355.5 616 355.5 616l11.5 3.5-1.331 31.667a40 40 0 0 0 24.531 38.581L496 733.999l-16 131.5-1.205 10.546c-.424 3.706 2.475 6.954 6.205 6.954v18h134l.035-.933a20 20 0 0 0-10.659-18.432Z" fill="#fff"/><path d="M605.791 887.456 585 878.94l12.328-177.823c.976-14.077-7.99-26.932-21.538-30.878L484 643.5l75.337 51.328a30.002 30.002 0 0 1 12.752 29.4L548.5 876l17.227 6.176a15 15 0 0 1 9.907 13.154L576 901h36v-4.29a10 10 0 0 0-6.209-9.254Z" fill="#000"/><path d="M564.709 888.041 543.5 878.009l23.012-152.361a30.002 30.002 0 0 0-12.767-29.27L472.5 641 371 619v36.899a30.001 30.001 0 0 0 18.591 27.746L502.328 730l-17.17 142.549a4.876 4.876 0 0 0 4.842 5.46v23.01h80.5l-.068-4.105a10.001 10.001 0 0 0-5.723-8.873ZM386.999 489.5C373.092 519.477 361 613 361 613l111.5 24 41.181 10.414a1.42 1.42 0 0 0 1.723-1.73 28.396 28.396 0 0 0-18.833-19.969L472.5 618l-63-24 9.311-63.615a1.513 1.513 0 0 1 3 .388L415 591.5l58.5 22.5c0-97.46-12.453-136.753-18.83-150.485-2.057-4.428-6.043-7.423-10.856-8.241-12.876-2.187-40.092-1.819-56.815 34.226Z" fill="#000"/><path d="M425.885 451.523c3.975 1.333 11.32 1.602 13.238 1.539 0 0 8.638-.374 13.604-2.476 5.596-2.369 8.682-4.599 12.349-9.397 2.505-3.278 4.355-8.854 5.167-11.607.321-1.088.53-2.201.68-3.325l3.391-25.455s.387-3.664.297-6.014c-.216-5.587-1.086-8.841-3.528-13.885-2.507-5.18-4.638-7.926-9.028-11.692-4.68-4.015-8.012-5.724-13.952-7.486-4.612-1.367-7.41-1.735-12.226-1.606-5.16.355-7.073.747-11.95 2.451-4.878 1.819-9.815 4.915-13.53 8.445-3.715 3.53-6.258 7.643-8.191 12.293-1.932 4.651-2.722 9.103-2.55 14.098.067 1.883.353 4.127.716 5.979l5.953 24.799a24.336 24.336 0 0 0 1.131 3.569c1.172 2.854 3.644 8.481 5.96 11.2 3.18 3.733 7.715 6.976 12.469 8.57Z" fill="#fff"/><path d="M427.791 445.712c3.341 1.165 9.511 1.407 11.122 1.354 0 0 7.256-.316 11.426-2.142 4.698-2.057 7.287-3.996 10.363-8.17 2.053-2.788 3.579-7.49 4.281-9.938.302-1.056.497-2.137.635-3.226l2.8-22.001s.322-3.191.243-5.237c-.187-4.866-.921-7.702-2.978-12.097-2.112-4.514-3.905-6.908-7.597-10.193-3.935-3.502-6.736-4.994-11.728-6.534-3.876-1.196-6.227-1.519-10.272-1.412-4.334.303-5.94.643-10.036 2.121-4.095 1.58-8.239 4.27-11.356 7.341-3.117 3.07-5.249 6.649-6.867 10.697-1.619 4.049-2.278 7.925-2.127 12.276.057 1.64.3 3.594.608 5.207l4.985 21.424a23.97 23.97 0 0 0 1.067 3.469c1.013 2.536 3.045 7.267 4.948 9.583 2.675 3.254 6.488 6.084 10.483 7.478Z" fill="#000"/></svg>

<svg width="1300" height="1000" viewBox="0 0 1300 1000" fill="none" xmlns="http://www.w3.org/2000/svg">
<path d="M608.376 881.634L592 872.999L602.493 704.689C603.664 685.903 591.579 668.841 573.468 663.713L521.5 649C521.5 636.783 513.615 625.962 501.986 622.219L478 614.5C478 562.833 472.157 457.333 448 452C409.5 443.5 389 467.999 377 502.499C369.825 523.128 355.5 616 355.5 616L367 619.5L365.669 651.167C364.967 667.894 374.755 683.289 390.2 689.748L496 733.999L480 865.499L478.795 876.045C478.371 879.751 481.27 882.999 485 882.999V900.999H619L619.035 900.066C619.319 892.384 615.176 885.219 608.376 881.634Z" fill="white"/>
<path d="M605.791 887.456L585 878.94L597.328 701.117C598.304 687.04 589.338 674.185 575.79 670.239L484 643.5L559.337 694.828C568.904 701.347 573.867 712.789 572.089 724.228L548.5 876L565.727 882.176C571.356 884.194 575.249 889.363 575.634 895.33L576 901H612V896.71C612 892.651 609.547 888.995 605.791 887.456Z" fill="black"/>
<path d="M564.709 888.041L543.5 878.009L566.512 725.648C568.233 714.249 563.271 702.871 553.745 696.378L472.5 641L371 619V655.899C371 668.061 378.343 679.019 389.591 683.645L502.328 730L485.158 872.549C484.808 875.453 487.075 878.009 490 878.009V901.019H570.5L570.432 896.914C570.368 893.108 568.15 889.669 564.709 888.041Z" fill="black"/>
<path d="M386.999 489.5C373.092 519.477 361 613 361 613L472.5 637L513.681 647.414C514.726 647.678 515.673 646.728 515.404 645.684C512.974 636.234 505.862 628.693 496.571 625.715L472.5 618L409.5 594L418.811 530.385C418.92 529.642 419.557 529.091 420.308 529.091C421.21 529.091 421.911 529.876 421.811 530.773L415 591.5L473.5 614C473.5 516.54 461.047 477.247 454.67 463.515C452.613 459.087 448.627 456.092 443.814 455.274C430.938 453.087 403.722 453.455 386.999 489.5Z" fill="black"/>
<path d="M425.885 451.523C429.86 452.856 437.205 453.125 439.123 453.062C439.123 453.062 447.761 452.688 452.727 450.586C458.323 448.217 461.409 445.987 465.076 441.189C467.581 437.911 469.431 432.335 470.243 429.582C470.564 428.494 470.773 427.381 470.923 426.257L474.314 400.802C474.314 400.802 474.701 397.138 474.611 394.788C474.395 389.201 473.525 385.947 471.083 380.903C468.576 375.723 466.445 372.977 462.055 369.211C457.375 365.196 454.043 363.487 448.103 361.725C443.491 360.358 440.693 359.99 435.877 360.119C430.717 360.474 428.804 360.866 423.927 362.57C419.049 364.389 414.112 367.485 410.397 371.015C406.682 374.545 404.139 378.658 402.206 383.308C400.274 387.959 399.484 392.411 399.656 397.406C399.723 399.289 400.009 401.533 400.372 403.385L406.325 428.184C406.617 429.401 406.981 430.595 407.456 431.753C408.628 434.607 411.1 440.234 413.416 442.953C416.596 446.686 421.131 449.929 425.885 451.523Z" fill="white"/>
<path d="M427.791 445.712C431.132 446.877 437.302 447.119 438.913 447.066C438.913 447.066 446.169 446.75 450.339 444.924C455.037 442.867 457.626 440.928 460.702 436.754C462.755 433.966 464.281 429.264 464.983 426.816C465.285 425.76 465.48 424.679 465.618 423.59L468.418 401.589C468.418 401.589 468.74 398.398 468.661 396.352C468.474 391.486 467.74 388.65 465.683 384.255C463.571 379.741 461.778 377.347 458.086 374.062C454.151 370.56 451.35 369.068 446.358 367.528C442.482 366.332 440.131 366.009 436.086 366.116C431.752 366.419 430.146 366.759 426.05 368.237C421.955 369.817 417.811 372.507 414.694 375.578C411.577 378.648 409.445 382.227 407.827 386.275C406.208 390.324 405.549 394.2 405.7 398.551C405.757 400.191 406 402.145 406.308 403.758L411.293 425.182C411.568 426.363 411.91 427.525 412.36 428.651C413.373 431.187 415.405 435.918 417.308 438.234C419.983 441.488 423.796 444.318 427.791 445.712Z" fill="black"/>
</svg>
